src/assets/discord.svg

<svg fill="none" height="24" viewBox="0 0 25 24" width="25" xmlns="http://www.w3.org/2000/svg"><circle cx="12.0781" cy="12" fill="#5863f1" r="12"/><path d="m17.9793 6.58478c-1.1029-.50631-2.2669-.86736-3.4627-1.07412-.0109-.00203-.0222-.00058-.0322.00415s-.0183.0125-.0236.02221c-.1586.28782-.3025.58346-.4313.88579-1.3073-.19575-2.6083-.19575-3.8887 0-.1162-.27889-.28775-.61984-.43798-.88579-.00556-.00951-.01387-.01712-.02383-.02182-.00996-.00471-.02112-.00629-.03199-.00454-1.19585.20635-2.35976.56742-3.46243 1.07412-.00944.00403-.01739.0109-.02277.01965-2.2055 3.29447-2.80976 6.50847-2.51338 9.68217.00083.0078.00323.0154.00706.0223.00383.0068.00901.0129.01522.0177 1.45508 1.0686 2.8644 1.7172 4.24784 2.1473.01076.0032.02224.003.0329-.0005s.02-.0102.02676-.0192c.32802-.4465.61868-.9193.86902-1.4136.0034-.0068.00534-.0142.00568-.0218.00034-.0075-.00092-.0151-.0037-.0222-.00279-.007-.00702-.0134-.01244-.0187s-.0119-.0094-.01901-.0121c-.4584-.1754-.90216-.3869-1.32714-.6325-.00772-.0045-.0142-.0109-.01887-.0186-.00467-.0076-.00739-.0163-.00791-.0253-.00052-.0089.00117-.0179.00492-.026s.00945-.0152.01659-.0207c.08913-.0668.17826-.1363.26356-.2065.00761-.0062.01679-.0102.02653-.0114.00974-.0013.01963.0002.02858.0042 2.78389 1.2708 5.79779 1.2708 8.54889 0 .0089-.0043.0189-.006.0288-.0049.0099.0012.0193.0051.027.0114.0853.0702.1744.1404.2643.2072.0071.0054.0129.0125.0167.0206.0037.0081.0055.0171.005.026s-.0031.0176-.0078.0253c-.0046.0077-.011.0141-.0187.0187-.4239.2476-.8679.459-1.3274.6318-.0071.0028-.0136.007-.019.0123-.0054.0054-.0096.0119-.0123.019s-.0039.0147-.0035.0224c.0004.0076.0024.015.0058.0218.2545.4916.5447.9638.8683 1.4129.0066.0092.0159.0161.0266.0197s.0223.0038.0331.0004c1.3899-.4298 2.7994-1.0786 4.2545-2.147.0063-.0046.0115-.0105.0153-.0173.0038-.0067.0061-.0143.0068-.022.3546-3.6694-.5942-6.85681-2.5151-9.68263-.0048-.00917-.0127-.01631-.0223-.02013zm-8.71662 7.76942c-.83787 0-1.52863-.7693-1.52863-1.7145 0-.945.67734-1.7146 1.52863-1.7146.85852 0 1.54252.7763 1.52912 1.7146 0 .9452-.6773 1.7145-1.52888 1.7145zm5.65282 0c-.8381 0-1.5286-.7693-1.5286-1.7145 0-.945.6771-1.7146 1.5286-1.7146.8583 0 1.5423.7763 1.5287 1.7146 0 .9452-.6704 1.7145-1.5287 1.7145z" fill="#fff"/></svg>

<svg width="25" height="24" viewBox="0 0 25 24" fill="none" xmlns="http://www.w3.org/2000/svg">
<circle cx="12.0781" cy="12" r="12" fill="#5863F1"/>
<path d="M17.9793 6.58478C16.8764 6.07847 15.7124 5.71742 14.5166 5.51066C14.5057 5.50863 14.4944 5.51008 14.4844 5.51481C14.4744 5.51954 14.4661 5.52731 14.4608 5.53702C14.3022 5.82484 14.1583 6.12048 14.0295 6.42281C12.7222 6.22706 11.4212 6.22706 10.1408 6.42281C10.0246 6.14392 9.85305 5.80297 9.70282 5.53702C9.69726 5.52751 9.68895 5.5199 9.67899 5.5152C9.66903 5.51049 9.65787 5.50891 9.647 5.51066C8.45115 5.71701 7.28724 6.07808 6.18457 6.58478C6.17513 6.58881 6.16718 6.59568 6.1618 6.60443C3.9563 9.8989 3.35204 13.1129 3.64842 16.2866C3.64925 16.2944 3.65165 16.302 3.65548 16.3089C3.65931 16.3157 3.66449 16.3218 3.6707 16.3266C5.12578 17.3952 6.5351 18.0438 7.91854 18.4739C7.9293 18.4771 7.94078 18.4769 7.95144 18.4734C7.9621 18.4699 7.97144 18.4632 7.9782 18.4542C8.30622 18.0077 8.59688 17.5349 8.84722 17.0406C8.85062 17.0338 8.85256 17.0264 8.8529 17.0188C8.85324 17.0113 8.85198 17.0037 8.8492 16.9966C8.84641 16.9896 8.84218 16.9832 8.83676 16.9779C8.83134 16.9726 8.82486 16.9685 8.81775 16.9658C8.35935 16.7904 7.91559 16.5789 7.49061 16.3333C7.48289 16.3288 7.47641 16.3224 7.47174 16.3147C7.46707 16.3071 7.46435 16.2984 7.46383 16.2894C7.46331 16.2805 7.465 16.2715 7.46875 16.2634C7.4725 16.2553 7.4782 16.2482 7.48534 16.2427C7.57447 16.1759 7.6636 16.1064 7.7489 16.0362C7.75651 16.03 7.76569 16.026 7.77543 16.0248C7.78517 16.0235 7.79506 16.025 7.80401 16.029C10.5879 17.2998 13.6018 17.2998 16.3529 16.029C16.3618 16.0247 16.3718 16.023 16.3817 16.0241C16.3916 16.0253 16.401 16.0292 16.4087 16.0355C16.494 16.1057 16.5831 16.1759 16.673 16.2427C16.6801 16.2481 16.6859 16.2552 16.6897 16.2633C16.6934 16.2714 16.6952 16.2804 16.6947 16.2893C16.6942 16.2982 16.6916 16.3069 16.6869 16.3146C16.6823 16.3223 16.6759 16.3287 16.6682 16.3333C16.2443 16.5809 15.8003 16.7923 15.3408 16.9651C15.3337 16.9679 15.3272 16.9721 15.3218 16.9774C15.3164 16.9828 15.3122 16.9893 15.3095 16.9964C15.3068 17.0035 15.3056 17.0111 15.306 17.0188C15.3064 17.0264 15.3084 17.0338 15.3118 17.0406C15.5663 17.5322 15.8565 18.0044 16.1801 18.4535C16.1867 18.4627 16.196 18.4696 16.2067 18.4732C16.2174 18.4768 16.229 18.477 16.2398 18.4736C17.6297 18.0438 19.0392 17.395 20.4943 16.3266C20.5006 16.322 20.5058 16.3161 20.5096 16.3093C20.5134 16.3026 20.5157 16.295 20.5164 16.2873C20.871 12.6179 19.9222 9.43049 18.0013 6.60467C17.9965 6.5955 17.9886 6.58836 17.979 6.58454L17.9793 6.58478ZM9.26268 14.3542C8.42481 14.3542 7.73405 13.5849 7.73405 12.6397C7.73405 11.6947 8.41139 10.9251 9.26268 10.9251C10.1212 10.9251 10.8052 11.7014 10.7918 12.6397C10.7918 13.5849 10.1145 14.3542 9.26292 14.3542H9.26268ZM14.9155 14.3542C14.0774 14.3542 13.3869 13.5849 13.3869 12.6397C13.3869 11.6947 14.064 10.9251 14.9155 10.9251C15.7738 10.9251 16.4578 11.7014 16.4442 12.6397C16.4442 13.5849 15.7738 14.3542 14.9155 14.3542Z" fill="white"/>
</svg>
